build/img/icons/copy.svg

<svg width="18" height="21" viewBox="0 0 18 21" fill="none" xmlns="http://www.w3.org/2000/svg">
<path d="M4 4.49988V1.49988C4 1.23466 4.10536 0.980308 4.29289 0.792771C4.48043 0.605235 4.73478 0.499878 5 0.499878H17C17.2652 0.499878 17.5196 0.605235 17.7071 0.792771C17.8946 0.980308 18 1.23466 18 1.49988V15.4999C18 15.7651 17.8946 16.0195 17.7071 16.207C17.5196 16.3945 17.2652 16.4999 17 16.4999H14V19.4999C14 20.0519 13.55 20.4999 12.993 20.4999H1.007C0.875127 20.5007 0.744397 20.4754 0.622322 20.4255C0.500247 20.3756 0.389233 20.3021 0.295659 20.2092C0.202084 20.1163 0.127793 20.0058 0.0770543 19.884C0.0263156 19.7623 0.000129374 19.6318 0 19.4999L0.00300002 5.49988C0.00300002 4.94788 0.453 4.49988 1.009 4.49988H4ZM2.002 6.49988L2 18.4999H12V6.49988H2.002ZM6 4.49988H14V14.4999H16V2.49988H6V4.49988ZM4 9.49988H10V11.4999H4V9.49988ZM4 13.4999H10V15.4999H4V13.4999Z" fill="#5CC773"/>
</svg>

<svg width="18" height="21" fill="none" xmlns="http://www.w3.org/2000/svg">
    <path d="M4 4.5v-3a1 1 0 0 1 1-1h12a1 1 0 0 1 1 1v14a1 1 0 0 1-1 1h-3v3c0 .552-.45 1-1.007 1H1.007A1 1 0 0 1 0 19.5l.003-14c0-.552.45-1 1.006-1H4zm-1.998 2L2 18.5h10v-12H2.002zM6 4.5h8v10h2v-12H6v2zm-2 5h6v2H4v-2zm0 4h6v2H4v-2z" fill="#5CC773"/>
</svg>
